assets/barakhdi/3_g/11_gah.svg

<?xml version="1.0" encoding="UTF-8" standalone="no"?>
<svg
   width="77.099998"
   height="60.299999"
   version="1.1"
   id="svg1093"
   sodipodi:docname="11_gah.svg"
   inkscape:version="1.2.1 (9c6d41e410, 2022-07-14)"
   xmlns:inkscape="http://www.inkscape.org/namespaces/inkscape"
   xmlns:sodipodi="http://sodipodi.sourceforge.net/DTD/sodipodi-0.dtd"
   xmlns="http://www.w3.org/2000/svg"
   xmlns:svg="http://www.w3.org/2000/svg">
  <defs
     id="defs1097" />
  <sodipodi:namedview
     id="namedview1095"
     pagecolor="#ffffff"
     bordercolor="#666666"
     borderopacity="1.0"
     inkscape:showpageshadow="2"
     inkscape:pageopacity="0.0"
     inkscape:pagecheckerboard="0"
     inkscape:deskcolor="#d1d1d1"
     showgrid="false"
     inkscape:zoom="5.1189327"
     inkscape:cx="52.74537"
     inkscape:cy="18.558556"
     inkscape:window-width="1920"
     inkscape:window-height="1027"
     inkscape:window-x="-8"
     inkscape:window-y="-8"
     inkscape:window-maximized="1"
     inkscape:current-layer="svg1093" />
  <g
     id="g1100"
     inkscape:label="g1"
     transform="matrix(0.9997453,0,0,1,0,0.00113663)">
    <path
       id="path1096"
       style="display:inline;stroke-width:1.00013"
       inkscape:label="p1"
       d="m 60.315362,60.298863 h -1.000254 q -6.701707,0 -9.902523,-3 v 0 q -1.800458,-1.6 -2.650675,-4.1 -0.850216,-2.5 -0.850216,-6.7 v 0 -46.49999963 l 5.30135,0.8 V 46.198863 q 0,3.2 0.500127,4.85 0.500128,1.65 1.700433,2.55 v 0 q 1.200306,1.2 3.150803,1.45 1.950497,0.25 4.251083,0.25 v 0 z m -41.210496,-18.6 v 0 q -5.601427,0 -10.3026241,-3 -4.7011974,-3 -8.8022419,-9.4 v 0 l 4.401121,-2.9 q 3.3008407,5.3 6.651694,7.85 3.350854,2.55 7.852,2.55 v 0 q 11.002802,0 11.002802,-15.2 v 0 q 0,-8.1 -3.100789,-12.3499996 -3.10079,-4.25 -9.602446,-4.25 v 0 q -3.000764,0 -5.85149,0.75 -2.8507265,0.75 -5.2513379,1.95 v 0 l -1.8004586,-4.7 Q 10.802751,-0.00113663 17.404433,-0.00113663 v 0 q 8.602191,0 13.253376,5.65000003 4.651184,5.6499996 4.651184,16.0499996 v 0 q 0,7.2 -2.100535,11.6 -2.100535,4.4 -5.751465,6.4 -3.65093,2 -8.352127,2 z" />
    <path
       style="fill:none;stroke:#000000;stroke-width:1px;stroke-linecap:butt;stroke-linejoin:miter;stroke-opacity:1"
       d="M 5.1110167,5.3786544 C 7.9569982,4.4053666 10.729974,3.1187655 13.74917,2.7709717 c 3.864238,-0.5759492 8.035432,-0.3555143 11.482924,1.6478216 2.778957,1.565769 4.725982,4.3013607 5.816921,7.2558397 1.688958,4.683367 1.807164,9.780359 1.292464,14.685749 -0.511794,3.880063 -1.96099,7.9325 -5.153904,10.399892 -3.880399,2.819337 -9.169193,3.093213 -13.618228,1.593214 C 9.7051937,37.026498 6.7204676,34.011429 4.3615124,30.780452 3.6113031,29.765314 2.8610937,28.750175 2.1108844,27.735036"
       id="path2467-9"
       inkscape:label="s1" />
    <path
       style="fill:none;stroke:#000000;stroke-width:1px;stroke-linecap:butt;stroke-linejoin:miter;stroke-opacity:1"
       d="m 48.503106,0 c 0.03622,15.932961 0.01451,31.866641 0.087,47.799152 0.08139,2.829987 0.551096,5.907864 3.058307,7.861004 2.155272,1.77675 5.069622,2.004882 7.762579,2.043097 l 1.381953,0.06237"
       id="path2469-4"
       sodipodi:nodetypes="ccccc"
       inkscape:label="s2" />
  </g>
  <g
     id="g686"
     inkscape:label="g2"
     transform="translate(14.7)">
    <path
       style="display:inline"
       d="m 57.8,22 v 0 Q 56,22 54.6,20.65 53.2,19.3 53.2,16.9 v 0 q 0,-2.4 1.35,-3.75 1.35,-1.35 3.25,-1.35 v 0 q 2,0 3.3,1.35 1.3,1.35 1.3,3.75 v 0 q 0,2.5 -1.35,3.8 Q 59.7,22 57.8,22 Z"
       id="path675"
       inkscape:label="p3" />
    <path
       d="m 57.837008,13.391934 c -0.820403,0 -1.515467,0.311801 -2.085191,0.935405 -0.569724,0.623603 -0.854587,1.707464 -0.854587,2.59035 0,1.055328 0.273468,1.894793 0.820403,2.518396 0.546936,0.623603 1.347168,0.935404 2.119375,0.935404 0.865981,0 1.572439,-0.311801 2.119375,-0.935404 0.546935,-0.623603 0.820403,-1.597773 0.820403,-2.518396 0,-1.151267 -0.284863,-2.02671 -0.854587,-2.626328 -0.569724,-0.599617 -1.264788,-0.899427 -2.085191,-0.899427 z"
       style="display:inline;stroke-width:0.701376"
       id="path950"
       sodipodi:nodetypes="sssssssss"
       inkscape:label="s3" />
  </g>
  <g
     id="g690"
     inkscape:label="g3"
     transform="translate(14.7)">
    <path
       style="display:inline"
       d="m 57.8,55.3 v 0 Q 56,55.3 54.6,53.95 53.2,52.6 53.2,50.2 v 0 q 0,-2.4 1.35,-3.75 1.35,-1.35 3.25,-1.35 v 0 q 2,0 3.3,1.35 1.3,1.35 1.3,3.75 v 0 q 0,2.5 -1.35,3.8 -1.35,1.3 -3.25,1.3 z"
       id="path677"
       inkscape:label="p4" />
    <path
       d="m 57.836778,46.680782 c -0.820403,0 -1.515467,0.311801 -2.085191,0.935405 -0.569724,0.623603 -0.854587,1.707464 -0.854587,2.59035 0,1.055328 0.273468,1.894793 0.820403,2.518396 0.546936,0.623603 1.347168,0.935404 2.119375,0.935404 0.865981,0 1.572439,-0.311801 2.119375,-0.935404 0.546935,-0.623603 0.820403,-1.597773 0.820403,-2.518396 0,-1.151267 -0.284863,-2.02671 -0.854587,-2.626328 -0.569724,-0.599617 -1.264788,-0.899427 -2.085191,-0.899427 z"
       style="display:inline;stroke-width:0.701376"
       id="path950-5"
       sodipodi:nodetypes="sssssssss"
       inkscape:label="s4" />
  </g>
</svg>

<?xml version="1.0" encoding="UTF-8" standalone="no"?>
<svg
   width="77.099998"
   height="60.299999"
   version="1.1"
   id="svg1093"
   sodipodi:docname="11_gah.svg"
   inkscape:version="1.2.1 (9c6d41e410, 2022-07-14)"
   xmlns:inkscape="http://www.inkscape.org/namespaces/inkscape"
   xmlns:sodipodi="http://sodipodi.sourceforge.net/DTD/sodipodi-0.dtd"
   xmlns="http://www.w3.org/2000/svg"
   xmlns:svg="http://www.w3.org/2000/svg">
  <defs
     id="defs1097" />
  <sodipodi:namedview
     id="namedview1095"
     pagecolor="#ffffff"
     bordercolor="#666666"
     borderopacity="1.0"
     inkscape:showpageshadow="2"
     inkscape:pageopacity="0.0"
     inkscape:pagecheckerboard="0"
     inkscape:deskcolor="#d1d1d1"
     showgrid="false"
     inkscape:zoom="5.1189327"
     inkscape:cx="52.647694"
     inkscape:cy="18.558556"
     inkscape:window-width="1920"
     inkscape:window-height="1027"
     inkscape:window-x="-8"
     inkscape:window-y="-8"
     inkscape:window-maximized="1"
     inkscape:current-layer="svg1093" />
  <g
     id="g124"
     inkscape:label="g1">
    <path
       d="m 19.1,41.7 v 0 q -5.6,0 -10.3,-3 -4.7,-3 -8.8,-9.4 v 0 l 4.4,-2.9 q 3.3,5.3 6.65,7.85 3.35,2.55 7.85,2.55 v 0 q 11,0 11,-15.2 v 0 Q 29.9,13.5 26.8,9.25 23.7,5 17.2,5 V 5 Q 14.2,5 11.35,5.75 8.5,6.5 6.1,7.7 v 0 L 4.3,3 Q 10.8,0 17.4,0 V 0 Q 26,0 30.65,5.65 35.3,11.3 35.3,21.7 v 0 q 0,7.2 -2.1,11.6 -2.1,4.4 -5.75,6.4 -3.65,2 -8.35,2 z"
       id="path1087"
       inkscape:label="p1" />
    <path
       style="fill:none;stroke:#000000;stroke-width:1px;stroke-linecap:butt;stroke-linejoin:miter;stroke-opacity:1"
       d="m 5.1112413,5.3785387 c 2.8459815,-0.973287 5.6189577,-2.259888 8.6381537,-2.607682 3.864238,-0.575949 8.035432,-0.355515 11.482924,1.647821 2.778957,1.565769 4.725982,4.301361 5.816921,7.2558403 1.688958,4.683367 1.807164,9.780359 1.292464,14.685749 -0.511794,3.880063 -1.96099,7.9325 -5.153904,10.399892 -3.880399,2.819337 -9.169193,3.093213 -13.618228,1.593214 C 9.7054183,37.026383 6.7206922,34.011314 4.361737,30.780337 3.6115277,29.765199 2.8613183,28.75006 2.111109,27.734921"
       id="path2467"
       inkscape:label="s1" />
  </g>
  <g
     id="g128"
     inkscape:label="g2">
    <path
       d="m 60.3,60.3 h -1 q -6.7,0 -9.9,-3 v 0 Q 47.6,55.7 46.75,53.2 45.9,50.7 45.9,46.5 v 0 V 0 l 5.3,0.8 v 45.4 q 0,3.2 0.5,4.85 0.5,1.65 1.7,2.55 v 0 q 1.2,1.2 3.15,1.45 1.95,0.25 4.25,0.25 v 0 z"
       id="path116"
       inkscape:label="p2" />
    <path
       style="fill:none;stroke:#000000;stroke-width:1px;stroke-linecap:butt;stroke-linejoin:miter;stroke-opacity:1"
       d="M 48.503331,-1.1532012e-4 C 48.539551,15.932846 48.517841,31.866526 48.590331,47.799037 c 0.08139,2.829987 0.551096,5.907864 3.058307,7.861004 2.155272,1.77675 5.069622,2.004882 7.762579,2.043097 l 1.381953,0.06237"
       id="path2469"
       sodipodi:nodetypes="ccccc"
       inkscape:label="s2" />
  </g>
  <g
     id="g686"
     inkscape:label="g3"
     transform="translate(14.7)">
    <path
       style="display:inline"
       d="m 57.8,22 v 0 Q 56,22 54.6,20.65 53.2,19.3 53.2,16.9 v 0 q 0,-2.4 1.35,-3.75 1.35,-1.35 3.25,-1.35 v 0 q 2,0 3.3,1.35 1.3,1.35 1.3,3.75 v 0 q 0,2.5 -1.35,3.8 Q 59.7,22 57.8,22 Z"
       id="path675"
       inkscape:label="p3" />
    <path
       d="m 57.837008,13.391934 c -0.820403,0 -1.515467,0.311801 -2.085191,0.935405 -0.569724,0.623603 -0.854587,1.707464 -0.854587,2.59035 0,1.055328 0.273468,1.894793 0.820403,2.518396 0.546936,0.623603 1.347168,0.935404 2.119375,0.935404 0.865981,0 1.572439,-0.311801 2.119375,-0.935404 0.546935,-0.623603 0.820403,-1.597773 0.820403,-2.518396 0,-1.151267 -0.284863,-2.02671 -0.854587,-2.626328 -0.569724,-0.599617 -1.264788,-0.899427 -2.085191,-0.899427 z"
       style="display:inline;stroke-width:0.701376"
       id="path950"
       sodipodi:nodetypes="sssssssss"
       inkscape:label="s3" />
  </g>
  <g
     id="g690"
     inkscape:label="g4"
     transform="translate(14.7)">
    <path
       style="display:inline"
       d="m 57.8,55.3 v 0 Q 56,55.3 54.6,53.95 53.2,52.6 53.2,50.2 v 0 q 0,-2.4 1.35,-3.75 1.35,-1.35 3.25,-1.35 v 0 q 2,0 3.3,1.35 1.3,1.35 1.3,3.75 v 0 q 0,2.5 -1.35,3.8 -1.35,1.3 -3.25,1.3 z"
       id="path677"
       inkscape:label="p4" />
    <path
       d="m 57.836778,46.680782 c -0.820403,0 -1.515467,0.311801 -2.085191,0.935405 -0.569724,0.623603 -0.854587,1.707464 -0.854587,2.59035 0,1.055328 0.273468,1.894793 0.820403,2.518396 0.546936,0.623603 1.347168,0.935404 2.119375,0.935404 0.865981,0 1.572439,-0.311801 2.119375,-0.935404 0.546935,-0.623603 0.820403,-1.597773 0.820403,-2.518396 0,-1.151267 -0.284863,-2.02671 -0.854587,-2.626328 -0.569724,-0.599617 -1.264788,-0.899427 -2.085191,-0.899427 z"
       style="display:inline;stroke-width:0.701376"
       id="path950-5"
       sodipodi:nodetypes="sssssssss"
       inkscape:label="s4" />
  </g>
</svg>
